!! 00000] TT[WS
!!!OTL: Mai bianshi
!!!ARE: Asia, China, Shanxi Xingxian
!! Ethnic Group: Han
!! WII, 78 (1)
!!!SCT: J0514
!!!YEM: Copyright 1995, estate of Helmut Schaffrath.
**kern
*ICvox
*Ivox
*M2/4
*k[b-]
*F:
{8dd
8ff
4cc
=1
8dd
8ff
4cc
=2
8dd
4ff
8a
=3
2cc}
=4
{8a
8cc
8dd
8ff
=5
8cc
8a
4g
=6
8a
16cc
16cc
8cc
8d
=7
2f}
=8
{8.a
16g
8f
8g
=9
8a
8g
4a
=10
8a
16cc
16cc
8cc
8d
=11
2f}
==
!!!AGN: Xiaodiao. Maimai, Qingge
!!!ONB: ESAC (Essen Associative Code) Database: CHINA
!!!AMT: simple duple
!!!AIN: vox
!!!EED: Helmut Schaffrath
!!!EEV: 1.0
*-
